!!! Tom, Tom, The Piper's Son
**kern
*clefG2
*M4/4
*k[f#]
*G:
1g
=1
2.g
4a
=2
2a
2a
=3
1g
=4
2e
2e
=5
2d
4e
4f#
=6
2g
2a
=7
2.g
4b
=8
2dd
2dd
=9
2.b
4b
=10
2cc
2cc
=11
2.a
4g
=12
2f#
2d
=13
2e
2f#
=14
2g
2e
=15
1g
*-
